**harm	**harte	**timestamp	**phrase	**leadinstrument	**kern
*M4/4	*M4/4	*	*	*	*
*G:	*G:	*	*	*	*G:
1r;	N	0	.	r	1r;
=1	=1	=1	=1	=1	=1
*>A_intro	*>A_intro	*>A_intro	*>A_intro	*>A_intro	*>A_intro
1r	N	0.998	newline	synthesizer	1r
=2	=2	=2	=2	=2	=2
1r	N	2.85	.	synthesizer	1r
=3	=3	=3	=3	=3	=3
1r	N	4.702	.	synthesizer	1r
=4	=4	=4	=4	=4	=4
1r	N	6.554	.	synthesizer	1r
=5	=5	=5	=5	=5	=5
1I	G:maj	8.406	newline	synthesizer	1G 1b 1dd
=6	=6	=6	=6	=6	=6
1V	D:maj	10.237	.	synthesizer	1D 1f# 1a
=7	=7	=7	=7	=7	=7
1IV	C:maj	12.069	.	synthesizer	1C 1e 1g
=8	=8	=8	=8	=8	=8
1V	D:maj	13.901	.	synthesizer	1D 1f# 1a
=9	=9	=9	=9	=9	=9
*>A_verse	*>A_verse	*>A_verse	*>A_verse	*>A_verse	*>A_verse
1I	G:maj	15.733	newline	voice	1G 1b 1dd
=10	=10	=10	=10	=10	=10
1V	D:maj	17.547	.	voice	1D 1f# 1a
=11	=11	=11	=11	=11	=11
1IV	C:maj	19.361	.	voice	1C 1e 1g
=12	=12	=12	=12	=12	=12
1V	D:maj	21.175	.	voice	1D 1f# 1a
=13	=13	=13	=13	=13	=13
1I	G:maj	22.988	newline	voice	1G 1b 1dd
=14	=14	=14	=14	=14	=14
1V	D:maj	24.813	.	voice	1D 1f# 1a
=15	=15	=15	=15	=15	=15
1IV	C:maj	26.638	.	voice	1C 1e 1g
=16	=16	=16	=16	=16	=16
1V	D:maj	28.463	.	voice	1D 1f# 1a
=17	=17	=17	=17	=17	=17
*>B_verse	*>B_verse	*>B_verse	*>B_verse	*>B_verse	*>B_verse
1IV	C:maj	30.287	newline	voice	1C 1e 1g
=18	=18	=18	=18	=18	=18
1IV	C:maj	32.097	.	voice	1C 1e 1g
=19	=19	=19	=19	=19	=19
1V	D:maj	33.907	.	voice	1D 1f# 1a
=20	=20	=20	=20	=20	=20
1V	D:maj	35.717	.	voice	1D 1f# 1a
=21	=21	=21	=21	=21	=21
1IV	C:maj	37.526	newline	voice	1C 1e 1g
=22	=22	=22	=22	=22	=22
1IV	C:maj	39.347	.	voice	1C 1e 1g
=23	=23	=23	=23	=23	=23
1V	D:maj	41.167	.	voice	1D 1f# 1a
=24	=24	=24	=24	=24	=24
1V	D:maj	42.987	.	voice	1D 1f# 1a
=25	=25	=25	=25	=25	=25
*>C_prechorus	*>C_prechorus	*>C_prechorus	*>C_prechorus	*>C_prechorus	*>C_prechorus
1vi	E:min	44.807	newline	voice	1E 1g 1b
=26	=26	=26	=26	=26	=26
1II	A:maj	46.629	.	voice	1A 1cc# 1ee
=27	=27	=27	=27	=27	=27
1vi	E:min	48.451	.	voice	1E 1g 1b
=28	=28	=28	=28	=28	=28
1II	A:maj	50.273	.	voice	1A 1cc# 1ee
=29	=29	=29	=29	=29	=29
*>B_chorus	*>B_chorus	*>B_chorus	*>B_chorus	*>B_chorus	*>B_chorus
1IV	C:maj	52.095	newline	voice	1C 1e 1g
=30	=30	=30	=30	=30	=30
1IV	C:maj	53.936	.	voice	1C 1e 1g
=31	=31	=31	=31	=31	=31
1V	D:maj	55.777	.	voice	1D 1f# 1a
=32	=32	=32	=32	=32	=32
1V	D:maj	57.618	.	voice	1D 1f# 1a
=33	=33	=33	=33	=33	=33
1IV	C:maj	59.459	newline	voice	1C 1e 1g
=34	=34	=34	=34	=34	=34
1IV	C:maj	61.258	.	voice	1C 1e 1g
=35	=35	=35	=35	=35	=35
1V	D:maj	63.058	.	voice	1D 1f# 1a
=36	=36	=36	=36	=36	=36
1V	D:maj	64.857	.	voice	1D 1f# 1a
=37	=37	=37	=37	=37	=37
*>A_chorus	*>A_chorus	*>A_chorus	*>A_chorus	*>A_chorus	*>A_chorus
1I	G:maj	66.657	newline	voice	1G 1b 1dd
=38	=38	=38	=38	=38	=38
1V	D:maj	68.497	.	voice	1D 1f# 1a
=39	=39	=39	=39	=39	=39
1IV	C:maj	70.338	.	voice	1C 1e 1g
=40	=40	=40	=40	=40	=40
1V	D:maj	72.178	.	voice	1D 1f# 1a
=41	=41	=41	=41	=41	=41
1I	G:maj	74.018	newline	voice	1G 1b 1dd
=42	=42	=42	=42	=42	=42
1V	D:maj	75.836	.	voice	1D 1f# 1a
=43	=43	=43	=43	=43	=43
1IV	C:maj	77.653	.	voice	1C 1e 1g
=44	=44	=44	=44	=44	=44
1V	D:maj	79.471	.	voice	1D 1f# 1a
=45	=45	=45	=45	=45	=45
*>A_verse	*>A_verse	*>A_verse	*>A_verse	*>A_verse	*>A_verse
1I	G:maj	81.288	newline	voice	1G 1b 1dd
=46	=46	=46	=46	=46	=46
1V	D:maj	83.108	.	voice	1D 1f# 1a
=47	=47	=47	=47	=47	=47
1IV	C:maj	84.929	.	voice	1C 1e 1g
=48	=48	=48	=48	=48	=48
1V	D:maj	86.749	.	voice	1D 1f# 1a
=49	=49	=49	=49	=49	=49
1I	G:maj	88.57	newline	voice	1G 1b 1dd
=50	=50	=50	=50	=50	=50
1V	D:maj	90.388	.	voice	1D 1f# 1a
=51	=51	=51	=51	=51	=51
1IV	C:maj	92.206	.	voice	1C 1e 1g
=52	=52	=52	=52	=52	=52
1V	D:maj	94.025	.	voice	1D 1f# 1a
=53	=53	=53	=53	=53	=53
*>B_verse	*>B_verse	*>B_verse	*>B_verse	*>B_verse	*>B_verse
1IV	C:maj	95.843	newline	voice	1C 1e 1g
=54	=54	=54	=54	=54	=54
1IV	C:maj	97.664	.	voice	1C 1e 1g
=55	=55	=55	=55	=55	=55
1V	D:maj	99.485	.	voice	1D 1f# 1a
=56	=56	=56	=56	=56	=56
1V	D:maj	101.306	.	voice	1D 1f# 1a
=57	=57	=57	=57	=57	=57
1IV	C:maj	103.128	newline	voice	1C 1e 1g
=58	=58	=58	=58	=58	=58
1IV	C:maj	104.947	.	voice	1C 1e 1g
=59	=59	=59	=59	=59	=59
1V	D:maj	106.766	.	voice	1D 1f# 1a
=60	=60	=60	=60	=60	=60
1V	D:maj	108.585	.	voice	1D 1f# 1a
=61	=61	=61	=61	=61	=61
*>C_prechorus	*>C_prechorus	*>C_prechorus	*>C_prechorus	*>C_prechorus	*>C_prechorus
1vi	E:min	110.404	newline	voice	1E 1g 1b
=62	=62	=62	=62	=62	=62
1II	A:maj	112.194	.	voice	1A 1cc# 1ee
=63	=63	=63	=63	=63	=63
1vi	E:min	113.984	.	voice	1E 1g 1b
=64	=64	=64	=64	=64	=64
1II	A:maj	115.775	.	voice	1A 1cc# 1ee
=65	=65	=65	=65	=65	=65
*>B_chorus	*>B_chorus	*>B_chorus	*>B_chorus	*>B_chorus	*>B_chorus
1IV	C:maj	117.565	newline	voice	1C 1e 1g
=66	=66	=66	=66	=66	=66
1IV	C:maj	119.418	.	voice	1C 1e 1g
=67	=67	=67	=67	=67	=67
1V	D:maj	121.271	.	voice	1D 1f# 1a
=68	=68	=68	=68	=68	=68
1V	D:maj	123.124	.	voice	1D 1f# 1a
=69	=69	=69	=69	=69	=69
1IV	C:maj	124.977	newline	voice	1C 1e 1g
=70	=70	=70	=70	=70	=70
1IV	C:maj	126.797	.	voice	1C 1e 1g
=71	=71	=71	=71	=71	=71
1V	D:maj	128.617	.	voice	1D 1f# 1a
=72	=72	=72	=72	=72	=72
1V	D:maj	130.437	.	voice	1D 1f# 1a
=73	=73	=73	=73	=73	=73
*>B_interlude	*>B_interlude	*>B_interlude	*>B_interlude	*>B_interlude	*>B_interlude
1IV	C:maj	132.257	newline	guitar	1C 1e 1g
=74	=74	=74	=74	=74	=74
1IV	C:maj	134.079	.	guitar	1C 1e 1g
=75	=75	=75	=75	=75	=75
1V	D:maj	135.9	.	guitar	1D 1f# 1a
=76	=76	=76	=76	=76	=76
1V	D:maj	137.721	.	guitar	1D 1f# 1a
=77	=77	=77	=77	=77	=77
1IV	C:maj	139.542	newline	guitar	1C 1e 1g
=78	=78	=78	=78	=78	=78
1IV	C:maj	141.377	.	guitar	1C 1e 1g
=79	=79	=79	=79	=79	=79
1V	D:maj	143.211	.	guitar	1D 1f# 1a
=80	=80	=80	=80	=80	=80
1V	D:maj	145.046	.	guitar	1D 1f# 1a
=81	=81	=81	=81	=81	=81
*>B_interlude	*>B_interlude	*>B_interlude	*>B_interlude	*>B_interlude	*>B_interlude
1IV	C:maj	146.881	newline	guitar	1C 1e 1g
=82	=82	=82	=82	=82	=82
1IV	C:maj	148.686	.	guitar	1C 1e 1g
=83	=83	=83	=83	=83	=83
1V	D:maj	150.491	.	guitar	1D 1f# 1a
=84	=84	=84	=84	=84	=84
1V	D:maj	152.297	.	guitar	1D 1f# 1a
=85	=85	=85	=85	=85	=85
1IV	C:maj	154.102	newline	guitar	1C 1e 1g
=86	=86	=86	=86	=86	=86
1IV	C:maj	155.907	.	guitar	1C 1e 1g
=87	=87	=87	=87	=87	=87
1V	D:maj	157.712	.	guitar	1D 1f# 1a
=88	=88	=88	=88	=88	=88
1V	D:maj	159.517	.	guitar	1D 1f# 1a
=89	=89	=89	=89	=89	=89
*>C_prechorus	*>C_prechorus	*>C_prechorus	*>C_prechorus	*>C_prechorus	*>C_prechorus
1vi	E:min	161.322	newline	voice	1E 1g 1b
=90	=90	=90	=90	=90	=90
1II	A:maj	163.142	.	voice	1A 1cc# 1ee
=91	=91	=91	=91	=91	=91
1vi	E:min	164.962	.	voice	1E 1g 1b
=92	=92	=92	=92	=92	=92
1II	A:maj	166.781	.	voice	1A 1cc# 1ee
=93	=93	=93	=93	=93	=93
*>B_outro	*>B_outro	*>B_outro	*>B_outro	*>B_outro	*>B_outro
1IV	C:maj	168.601	newline	voice	1C 1e 1g
=94	=94	=94	=94	=94	=94
1IV	C:maj	170.438	.	voice	1C 1e 1g
=95	=95	=95	=95	=95	=95
1V	D:maj	172.275	.	voice	1D 1f# 1a
=96	=96	=96	=96	=96	=96
1V	D:maj	174.112	.	voice	1D 1f# 1a
=97	=97	=97	=97	=97	=97
1IV	C:maj	175.949	newline	voice	1C 1e 1g
=98	=98	=98	=98	=98	=98
1IV	C:maj	177.769	.	voice	1C 1e 1g
=99	=99	=99	=99	=99	=99
1V	D:maj	179.589	.	voice	1D 1f# 1a
=100	=100	=100	=100	=100	=100
1V	D:maj	181.408	.	voice	1D 1f# 1a
=101	=101	=101	=101	=101	=101
1IV	C:maj	183.228	newline	voice	1C 1e 1g
=102	=102	=102	=102	=102	=102
1IV	C:maj	185.033	.	voice	1C 1e 1g
=103	=103	=103	=103	=103	=103
1V	D:maj	186.838	.	voice	1D 1f# 1a
=104	=104	=104	=104	=104	=104
1V	D:maj	188.644	.	voice	1D 1f# 1a
=105	=105	=105	=105	=105	=105
*>A_outro	*>A_outro	*>A_outro	*>A_outro	*>A_outro	*>A_outro
1I	G:maj	190.449	newline	voice	1G 1b 1dd
=106	=106	=106	=106	=106	=106
1V	D:maj	192.285	.	voice	1D 1f# 1a
=107	=107	=107	=107	=107	=107
1IV	C:maj	194.12	.	voice	1C 1e 1g
=108	=108	=108	=108	=108	=108
1V	D:maj	195.956	.	voice	1D 1f# 1a
=109	=109	=109	=109	=109	=109
1I	G:maj	197.792	newline	voice	1G 1b 1dd
=110	=110	=110	=110	=110	=110
1V	D:maj	199.628	.	voice	1D 1f# 1a
=111	=111	=111	=111	=111	=111
1IV	C:maj	201.464	.	voice	1C 1e 1g
=112	=112	=112	=112	=112	=112
1V	D:maj	203.3	.	voice	1D 1f# 1a
=113	=113	=113	=113	=113	=113
1I	G:maj	205.137	newline	fadeout	1G 1b 1dd
=114	=114	=114	=114	=114	=114
1V	D:maj	206.964	.	fadeout	1D 1f# 1a
=115	=115	=115	=115	=115	=115
1IV	C:maj	208.791	.	fadeout	1C 1e 1g
=116	=116	=116	=116	=116	=116
1V	D:maj	210.618	.	fadeout	1D 1f# 1a
=117	=117	=117	=117	=117	=117
1I	G:maj	212.445	newline	voice	1G 1b 1dd
=118	=118	=118	=118	=118	=118
1V	D:maj	214.261	.	voice	1D 1f# 1a
=119	=119	=119	=119	=119	=119
1IV	C:maj	216.076	.	voice	1C 1e 1g
=120	=120	=120	=120	=120	=120
1V	D:maj	217.891	.	voice	1D 1f# 1a
1r;	N	219.706	.	r	1r;
1r;	N	221.985	.	r	1r;
*-	*-	*-	*-	*-	*-
!!!OTL: Catch My Fall
!!!COC: Billy Idol
!!!BillboardChartDate: 1985/01/12
!!!BillboardPeak: 50
!!!BillboardWeeksOnChart: 11
!!!SampleTargetRank: 90
!!!SampleActualRank: 88
!!!SampleID#: 0794
!!!RDF**harmony: **recip + pitch class of root + harmonic quality
!!!RDF**harte: Chris Harte's syntax, used by MIREX
!!!RDF**phrase: newline = linebreak in original McGill transcription
!!!RDF**timestamp: McGill audio timestamp in seconds
!!!RDF**leadinstrument: original McGill primary instrumentation annotation
!!!RDT: 2017/01/12/
!!!ENC: Nathaniel Condit-Schultz
!!!EST: Awating manual error checking and editing.
